src/assets/icons/success.svg

<svg width="16" height="16" viewBox="0 0 16 16" fill="none" xmlns="http://www.w3.org/2000/svg">
<g clip-path="url(#clip0_8874_15287)">
<path fill-rule="evenodd" clip-rule="evenodd" d="M7.46212 0.0158669C5.75937 0.131112 4.19139 0.764035 2.84549 1.8794C2.62517 2.06196 2.06341 2.62372 1.88085 2.84403C0.860439 4.07536 0.245965 5.48548 0.0591281 7.02465C-0.190529 9.08124 0.362731 11.1568 1.59742 12.7954C1.84631 13.1257 2.0146 13.3176 2.34852 13.6515C2.68243 13.9854 2.87425 14.1537 3.20456 14.4026C4.71326 15.5393 6.61893 16.1076 8.50676 15.9836C10.2345 15.8701 11.8013 15.2418 13.156 14.1191C13.3763 13.9366 13.938 13.3748 14.1206 13.1545C14.6904 12.4669 15.1066 11.7738 15.4247 10.983C16.4661 8.39322 16.0764 5.42273 14.404 3.2031C14.1551 2.87279 13.9869 2.68098 13.6529 2.34706C13.319 2.01314 13.1272 1.84486 12.7969 1.59597C11.2814 0.454071 9.36665 -0.11304 7.46212 0.0158669ZM7.62026 1.72517C6.32024 1.80334 5.09151 2.27808 4.05612 3.10227C3.84005 3.27427 3.27572 3.83859 3.10373 4.05467C2.3758 4.96914 1.91693 6.04177 1.76843 7.17599C1.60384 8.43298 1.81866 9.69315 2.39272 10.8383C2.69623 11.4438 3.04593 11.9222 3.56192 12.4379C4.28974 13.1652 5.05208 13.6393 6.00873 13.9594C7.60869 14.4948 9.31978 14.3691 10.8461 13.6041C11.4433 13.3048 11.925 12.9522 12.4393 12.4379C13.1663 11.7109 13.6407 10.9481 13.9609 9.99126C14.4962 8.39131 14.3706 6.68021 13.6056 5.15394C13.3064 4.55696 12.954 4.07542 12.4393 3.56046C11.7137 2.83441 10.9498 2.35941 9.99272 2.03913C9.42993 1.85082 8.96293 1.76171 8.3427 1.72429C8.03284 1.70561 7.94372 1.70571 7.62026 1.72517ZM11.0146 4.68986C10.885 4.71931 10.7343 4.79735 10.641 4.8833C10.6028 4.91842 9.6931 6.04553 8.61929 7.38799C7.54548 8.73046 6.6631 9.82882 6.65847 9.82882C6.65382 9.82882 6.29428 9.56214 5.85948 9.23617C5.40209 8.89327 5.02503 8.62296 4.96476 8.59476C4.80807 8.52144 4.624 8.49982 4.45387 8.53475C4.37923 8.55007 4.27536 8.58341 4.22304 8.60884C4.08329 8.67673 3.91723 8.85041 3.83769 9.01187C3.78024 9.12852 3.77169 9.16239 3.76435 9.30254C3.75095 9.55892 3.81318 9.75887 3.95962 9.92996C4.0343 10.0172 6.29986 11.7219 6.42628 11.7859C6.53221 11.8396 6.69837 11.8801 6.81237 11.8801C7.00665 11.8801 7.23873 11.7908 7.37813 11.6624C7.45408 11.5924 11.8685 6.08097 11.9425 5.96368C12.0276 5.82879 12.0574 5.71554 12.057 5.52852C12.0566 5.34537 12.0258 5.22555 11.9431 5.08438C11.8526 4.92984 11.6347 4.75776 11.4663 4.70775C11.3382 4.6697 11.1381 4.66179 11.0146 4.68986Z" fill="currentColor"/>
</g>
<defs>
<clipPath id="clip0_8874_15287">
<rect width="16" height="16" fill="white" transform="translate(0 -0.000732422)"/>
</clipPath>
</defs>
</svg>

<svg xmlns="http://www.w3.org/2000/svg" width="16" height="16" fill="none">
  <g clip-path="url(#a)">
    <path fill="currentColor" fill-rule="evenodd" d="M7.462.016C5.76.13 4.192.764 2.845 1.879c-.22.183-.782.745-.964.965C.86 4.075.246 5.485.059 7.024a8 8 0 0 0 1.538 5.771c.25.33.418.523.752.857.333.333.525.502.856.75a7.998 7.998 0 0 0 9.951-.283c.22-.182.782-.744.965-.964a8.002 8.002 0 0 0 .283-9.952 7.02 7.02 0 0 0-.751-.856 7.026 7.026 0 0 0-.856-.751A8.014 8.014 0 0 0 7.462.016Zm.158 1.71a6.299 6.299 0 0 0-3.564 1.376c-.216.172-.78.737-.952.953a6.32 6.32 0 0 0-1.336 3.121 6.3 6.3 0 0 0 .625 3.662 5.868 5.868 0 0 0 1.169 1.6 6.018 6.018 0 0 0 2.447 1.521c1.6.536 3.31.41 4.837-.355a5.88 5.88 0 0 0 1.593-1.166 6.015 6.015 0 0 0 1.522-2.447c.535-1.6.41-3.31-.355-4.837a5.885 5.885 0 0 0-1.167-1.594 6.014 6.014 0 0 0-2.446-1.52 5.945 5.945 0 0 0-1.65-.316 4.57 4.57 0 0 0-.723.001Zm3.395 2.964a.895.895 0 0 0-.374.193c-.038.035-.948 1.163-2.022 2.505a375.238 375.238 0 0 1-1.96 2.44c-.005 0-.365-.266-.8-.592-.457-.343-.834-.613-.894-.641a.83.83 0 0 0-.511-.06 1.19 1.19 0 0 0-.231.074.977.977 0 0 0-.385.403.561.561 0 0 0-.074.29c-.013.257.05.457.196.628.074.087 2.34 1.792 2.466 1.856a.984.984 0 0 0 .386.094c.195 0 .427-.09.566-.218.076-.07 4.49-5.581 4.565-5.698a.72.72 0 0 0 .114-.435.793.793 0 0 0-.114-.445.969.969 0 0 0-.477-.376 1.046 1.046 0 0 0-.451-.018Z" clip-rule="evenodd"/>
  </g>
  <defs>
    <clipPath id="a">
      <path fill="#fff" d="M0 0h16v16H0z"/>
    </clipPath>
  </defs>
</svg>
